build/img/defrost.svg

<svg width="88" height="88" viewBox="0 0 88 88" fill="none" xmlns="http://www.w3.org/2000/svg">
<path d="M70.5243 17.5642L55.2662 21.5561L51.2743 6.20937M44.0001 40.9392L64.6695 5.45534M44.0001 40.9392L84.8509 41.2053M44.0001 40.9392L3.14929 40.6287M44.0001 40.9392L23.8186 5.18921M77.3549 52.3384L66.2662 41.0279L77.488 29.8948M10.5122 51.8948L21.734 40.7618L10.6453 29.4957M17.7864 17.2094L33.0001 21.4231L37.1695 6.12066M44.0001 44.4432C42.1372 54.5118 30.5162 58.5924 30.5162 69.0602C30.5162 76.1126 36.8146 82.3223 43.9557 82.3223C51.1412 82.3223 57.3953 76.1569 57.3953 69.0602C57.484 58.5924 45.863 54.5118 44.0001 44.4432Z" stroke="black" stroke-width="2" stroke-miterlimit="10" stroke-linejoin="bevel"/>
</svg>

<svg width="88" height="88" viewBox="0 0 88 88" fill="none" xmlns="http://www.w3.org/2000/svg"><path d="M70.524 17.564l-15.258 3.992L51.274 6.21M44 40.94L64.67 5.455M44 40.94l40.85.266M44 40.94l-40.85-.31m40.85.31L23.82 5.19m53.536 47.15l-11.09-11.313 11.222-11.133m-66.976 22l11.222-11.133-11.089-11.266m7.141-12.287L33 21.423l4.17-15.302M44 44.443c-1.863 10.069-13.484 14.15-13.484 24.617 0 7.053 6.299 13.262 13.44 13.262 7.185 0 13.44-6.165 13.44-13.262C57.483 58.592 45.862 54.512 44 44.443z" stroke="#000" stroke-width="2" stroke-miterlimit="10" stroke-linejoin="bevel"/></svg>
